!!!OTL: Take Me Out to the Ball Game
!!!COM: Von Tilzer, Albert
!!!LYR: Norworth, Jack
!!!ODT: unknown
!!!YOR: The Folksong Fake Book
!!!YOY: 2000
!!!AST: Occasional
!!!YEC: Brian Luke, 2001
**kern	**harm
*k[f#c#]	*k[f#c#]
*M3/4	*M3/4
*D:	*D:
*>A	*>A
=1	=1
4d	I
4r	.
4dd	.
=2	=2
4b	vi
4a	.
4f#	.
=3	=3
2.a	V
=4	=4
2.e	.
=5	=5
4d	I
4r	.
4dd	.
=6	=6
4b	vi
4a	.
4f#	.
=7	=7
[2.a	V7
=8	=8
2a]	.
4r	.
=9	=9
4b	V7/ii
4a#	.
4b	.
=10	=10
4f#	.
4g	.
4a	.
=11	=11
2b	ii
4g	.
=12	=12
2.e	.
=13	=13
2b	V/V
4b	.
=14	=14
4b	.
4cc#	.
4dd	.
=15	=15
4ee	V7
4cc#	.
4b	.
=16	=16
4a	.
*>A'	*>A'
4f#	iii
4e	V7
=17	=17
4d	I
4r	.
4dd	.
=18	=18
4b	vi
4a	.
4f#	.
=19	=19
2.a	V7
=20	=20
2e	.
4e	.
=21	=21
2d	V7/IV
4e	.
=22	=22
4f#	.
4g	.
4a	.
=23	=23
[2.b	IV
=24	=24
4b]	.
4b	.
4cc#	.
=25	=25
2.dd	iic
=26	=26
2.dd	-VI7
=27	=27
4dd	I
4cc#	.
4b	.
=28	=28
4a	Ib
4g#	viio/iii
4a	Ib
=29	=29
2.b	V7/V
=30	=30
2.cc#	V7
=31	=31
[2.dd	I
.	V7
=32	=32
4dd]	I;
2r	.
*-	*-
